X:1
T:Heilig
T:Heilig
T:Louis Spohr
T:Heilig / Holy
T:Aus dem Oratorium "Die letzten Dinge" / from Oratorio The Last Judgment, 1826
T:CPDL - Creative Commons Attribution Non Commercial 3.0
T:CPDL - Creative Commons Attribution Non Commercial 3.0
C:Louis Spohr
Z:CPDL - Creative Commons Attribution Non Commercial 3.0
%%score [ ( 1 2 ) ( 3 4 ) ]
L:1/8
Q:1/4=69
M:4/4
K:E
V:1 treble nm="Sopran\nAlt"
V:2 treble 
V:3 bass nm="Tenor\nBass"
V:4 bass 
V:1
!pp!"^Langsam / Adagio"!>(! G4!>)! F2 z2 |!p!!>(! A4!>)! G2 z2 |!mf! c2!<(! B!<)!c!>(! B3!>)! A | %3
w: Hei- lig,|hei- lig,|hei- lig ist Gott der|
w: Ho- ly,|Ho- ly,|Ho- ly Lord God of|
!>(! G4!>)! z2!mf!!<(! G>E!<)! | A3!>(! E!>)! !breath!E2!<(! GA!<)! | B2 z!f! B c3 B | %6
w: Herr, der All-|mäch- ti- ge, der da|war und der da|
w: Hosts! God Al-|migh- * ty, who _|wast, and who _|
 A2 z G!>(! F2 B2!>)! |!p! G4 z4 |!pp! G4 G2 z2 |!p! B4 !breath!A2 G2 | F4 F4 | E4 z2!<(! EE!<)! | %12
w: ist und der da|kommt!|Hei- lig,|hei- lig ist|Gott der|Herr, der All-|
w: art, and art to|come.|Ho- ly,|Ho- ly, Lord|God of|Hosts! God Al-|
!mf! E6!>(! E2 | E4!>)! z4 |] %14
w: mäch- ti-|ge!|
w: migh- *|ty!|
V:2
 E4 D2 x2 | (E2 B,2) B,2 x2 | CDE^E C2 D2 | =E4 x2 E>E | E3 E E2 EE | E2 x E ^E3 E | %6
 F2 x =E E2 D2 | E4 x4 | F4 E2 x2 | E4 E2 E2 | E4 D4 | E4 x2 =DD | (=D2 CB, C2) =C2 | B,4 x4 |] %14
V:3
!pp!!>(! B,4!>)! B,2 z2 |!p!!>(! (A,2 F,2)!>)! G,2 z2 |!mf! E,!<(!F,B,!<)!G,!>(! F,3!>)! B, | %3
!>(! B,4!>)! z2!mf!!<(! B,>G,!<)! | A,3!>(! A,!>)! !breath!A,2!<(! =DC!<)! | B,2 z!f! B, G,3 C | %6
 C2 z B,!>(! C2 B,2!>)! |!p! B,4 z4 |!pp! D4 C2 z2 |!p! G,4 !breath!A,2 B,2 | (C2 =C2 B,2) A,2 | %11
 G,4 z2!<(! B,B,!<)! |!mf! (B,2 A,G, A,2)!>(! A,2 | G,4!>)! z4 |] %14
V:4
 E,4 B,,2 x2 | (C,2 D,2) E,2 x2 | A,,2 G,,C, F,,2 B,,2 | [E,,E,]4 x2 =D,>D, | C,3 C, C,2 B,,A,, | %5
 G,,2 x G,, C,3 C, | F,,2 x G,, A,,2 B,,2 | E,4 x4 | ^B,,4 C,2 x2 | =D,4 C,2 B,,2 | A,,4 B,,4 | %11
 [E,,E,]4 x2 G,,G,, | A,,6 =C,2 | E,4 x4 |] %14

